X:961
T:Harsh February
T:Cold Harsh February, The
R:reel
C:Phil Cunningham
Z:id:hn-reel-961
M:C|
L:1/8
K:D
FABd B2AF | ABdf efde | f2ed BddB | ABdD FEED | 
FABd B2AF | ABdf efde | f2ed bafb |1 afef d2AG :|2 afef defa ||
|: bdda bdfe | defd edBA | FABd ABdb | afde fefa | 
bdda bdfe | defd edBA | FABd ABdb |1 afef defa :|2 afef d2AG ||  

